X:1
T:Sarasota, LMD
T:Sarasota, LMD
T:Edwin Othello Excell, 1900
T:Public Domain Courtesy of the Cyber Hymnal™
C:Edwin Othello Excell, 1900
Z:Public Domain
Z:Courtesy of the Cyber Hymnal™
%%score ( 1 2 ) 3
L:1/8
Q:1/4=103
M:4/4
K:Db
V:1 treble 
V:2 treble 
V:3 bass 
V:1
 [FA]2 | [FA]3 [EG] [DF][EG] [FA]>[GB] | [FA]6 [FA]2 | [Ac]3 [GB] [FA][EG] [FA]>[EG] | %4
 [DF]6 [FA]2 | [FA]3 [EG] [DF][EG] [FA]>[GB] | [FA]6 [Af]2 | %7
 [=Gf]3 [Ge] [Gf][Ge] [Gd]>"^riten."[GB] | A2 [GB]2 [FA]2 [EG]2 | [Ff]3 [Ge] [Fd][Ec] [Ge]>[Fd] | %10
 [FA]6 [FA]2 | [Ac]3 [GB] [FA][EG] [FA]>[EG] | [DF]6 [FA]2 | [Af]3 [Ge] [Fd][Ec] [Ge]>[Fd] | %14
 [FA]6 [FA]2 | [Gc]3 [GB] [FA][EG] [DF]>[CE] | D6 |] %17
V:2
 x2 | x8 | x8 | x8 | x8 | x8 | x8 | x8 | A2 x6 | x8 | x8 | x8 | x8 | x8 | x8 | x8 | D6 |] %17
V:3
 [D,A,]2 | [D,A,]3 [D,A,] [D,A,]2 [D,D]2 | [D,D]2 [D,D]2 [D,A,]2 [D,A,]2 | %3
 [A,,A,]3 [A,,A,] [A,,A,]2 [A,,A,]2 | [D,A,]2 [D,D]2 [D,A,]2 [D,A,]2 | %5
 [D,A,]3 [D,A,] [D,A,]2 [D,D]2 | [D,D]2 [D,D]2 [D,A,]2 [D,D]2 | [E,D]3 [E,D] [E,B,]2 [E,D]2 | %8
 [A,C]2 [A,C]2 [A,C]2 [A,C]2 | [D,D]3 [D,D] [D,A,]2 [D,A,]2 | [D,D]2 [D,D]2 [D,A,]2 [D,A,]2 | %11
 [A,,A,]3 [A,,A,] [A,,A,]2 [A,,A,]2 | [D,A,]2 [D,D]2 [D,A,]2 [D,D]2 | %13
 [D,D]3 [D,D] [D,A,]2 [D,A,]2 | [D,D]2 [D,D]2 [D,A,]2 [D,A,]2 | %15
 [A,,A,]3 [A,,A,] [A,,A,][A,,A,] [A,,A,]>[A,,A,] | [D,F,]6 |] %17

